icons/wifi-fill.svg

<svg xmlns="http://www.w3.org/2000/svg" width="24" height="24" fill="none"><g clip-path="url(#a)"><g><path fill="#121212" d="M0.690002 6.99702C3.88909 4.40534 7.88285 2.99393 12 3.00002C16.285 3.00002 20.22 4.49702 23.31 6.99702L21.425 9.33002C18.759 7.17055 15.4309 5.99467 12 6.00002C8.43 6.00002 5.15 7.24802 2.575 9.33002L0.690002 6.99702ZM3.831 10.887C6.1416 9.01502 9.02624 7.99556 12 8.00002C15.094 8.00002 17.936 9.08102 20.169 10.886L18.284 13.22C16.5065 11.7802 14.2875 10.9963 12 11C9.62 11 7.434 11.832 5.716 13.22L3.831 10.886V10.887ZM6.973 14.777C8.39485 13.6249 10.17 12.9974 12 13C13.904 13 15.653 13.665 17.027 14.776L15.142 17.11C14.2532 16.3902 13.1437 15.9982 12 16C10.8563 15.9982 9.7468 16.3902 8.858 17.11L6.973 14.776V14.777ZM10.115 18.667C10.6481 18.2347 11.3137 17.9992 12 18C12.714 18 13.37 18.25 13.885 18.666L12 21L10.115 18.666V18.667Z"/></g></g><defs><clipPath id="a"><rect width="24" height="24" fill="white"/></clipPath></defs></svg>

<svg width="24" height="24" fill="none" xmlns="http://www.w3.org/2000/svg"><g clip-path="url(#a)"><path d="M.69 6.997A17.925 17.925 0 0 1 12 3c4.285 0 8.22 1.497 11.31 3.997L21.425 9.33A14.937 14.937 0 0 0 12 6C8.43 6 5.15 7.248 2.575 9.33L.69 6.997Zm3.141 3.89A12.946 12.946 0 0 1 12 8a12.95 12.95 0 0 1 8.169 2.886l-1.885 2.334A9.958 9.958 0 0 0 12 11c-2.38 0-4.566.832-6.284 2.22l-1.885-2.334v.001Zm3.142 3.89A7.967 7.967 0 0 1 12 13c1.904 0 3.653.665 5.027 1.776l-1.885 2.334A4.98 4.98 0 0 0 12 16a4.98 4.98 0 0 0-3.142 1.11l-1.885-2.334v.001Zm3.142 3.89A2.987 2.987 0 0 1 12 18c.714 0 1.37.25 1.885.666L12 21l-1.885-2.334v.001Z" /></g><defs><clipPath id="a"><path fill="#fff" d="M0 0h24v24H0z"/></clipPath></defs></svg>
